X:196 
T:Sligo to Dublin* (polka) 
F:file ID: cre.5/196sligo_d
B:CRE5.100 (gan ainm)
L:1/8
M:2/4
Q:120
R:polka
K:G
d2 de/f/|g/f/e/d/ BG|Be dG|BA AB/c/|
d2 de/f/|g/f/e/d/ BG|Bd ga|1 ba g2:|2 g3||
|:A|Bd g>a|ba a/b/a/g/|fd fa|gf ed|
Bd g>a|ba a/b/a/g/|fd fa|g2g:|
"last time" -g4||

%%%

